X:124 
T:Master McDermott's (reel) 
T:McDermott's, Barrel Rafferty's
C:M.McDermott (Tyrone)
F:file ID: cre.4/124mast_mcd
B:CRE4.119 (RÃÂÃÂÃÂÃÂ­l an MhÃÂÃÂÃÂÃÂ¡istir Mhic Dhiarmada)
L:1/8
Q:180
M:4/4
R:reel
K:D
FE|D2 (3FED ADFA|dffe dBBd|AFFE DFAF|BFAF E2 FE|
D2 (3FED ADFA|dffe dBBd|AFF/E/F dFAF|EGFE D2:|
FA|dffe dfaf|g2 bg affe|dBBA FAde|fdgf e2 de|
faaf g2 bg|affe dBBd|AFF/E/F dFAF|EGFE D2:|


%%%

